X:891
L:1/8
Q:1/4=112
M:4/4
K:A
"^Allegretto" e2 ce f2 e2 | c2 B2 A2 FE | F2 A2 A2 Bc | e2 c2 B2 z2 | c2 e2 f2 e2 | ecBA a2 A2 | 
 abc'b bafe | Tf6 e2 | fgaf e>fec | BABc e2 c/e/f | e2 c>B A2 cB | AF B2 B2 AB | cBAG ABcA | 
 BAFE FGAF | EFEC DCB,A, | C4 A4 :: E2 B,C EFCF | ECB,A, A2 A,2 | ABcB AEBA | TF4 f2 f2 | 
 e/c/B AB c2 a2 | e/c/B AB c2 a2 | b2 af efec | B4 B2 cA | F2 A2 ABAF | EFAB cBcA | BABc eceB | 
 A2 f2 f2 fe | c2 cB A2 A2 | B2 BA F2 F2 | fecB A<FA<E | F2 A2 A4 :|

